X: 1533
T: Heart and Soul of the Goanna
B: australian traditional tunes wiki
M:3/4
L:1/8
R: Varsovienne
Q: 1/4=100
K:G
V:1 
|:B>c|"G"d2B2G2|g4d>e|"D7"f2e2d2|A4 A>B|A2F2G2|f4 f>e|d2c2F2|"G"G4:|
|:D>G|"G"B>A B2 D>G|B>A B2 D>G|B2c2d2|"D7"A2z2E>F|A>B A2 E>F|A>B A2 E>F|A2d2F2|"G"G4:|
% abcbook-tune_id 6342d53a4762d8e637570819


% abcbook-boost 0
% abcbook-tablature 
% abcbook-transpose 
% abcbook-lastupdated 1665324369767
% abcbook-soundfonts 
% abcbook-repeats 1
% NFF Book 2009

